!!!COM: Bach, Johann Sebastian
!!!OPR: Joh. Seb. Bachs vierstimmige Choralgesänge
!!!XEN: Four-part Chorales
!!!OTL: Chorale 159. So giebst du nun, mein Jesu, gute Nacht
!!!SCT: BWV 412
!!!SCA: Thematisch-systematisches Verzeichnis der musikalischen Werke Johann Sebastian Bach: Bach-Werke-Verzeichnis (Schmieder)
!!!YOR: Bach Gesellschaft Edition xxxix
!!!ENC: Steven Rasmussen
!!!CDT: 1685/3//-1750/7/28/
!!!OCY: Deutschland
!!!YEC: Copyright (c) 1994, 2000 Center for Computer Assisted Research in the Humanities
!!!YEM: Rights to all derivative editions reserved
!!!YEN: United States of America
**kern	**kern	**kern	**kern	**silbe
*I"[BASSO]	*I"[TENORE]	*I"[ALTO]	*I"[SOPRANO]	*I"[SOPRANO]
*clefF4	*clefGv2	*clefG2	*clefG2	*
*k[b-]	*k[b-]	*k[b-]	*k[b-]	*
*d:	*d:	*d:	*d:	*
*M4/4	*M4/4	*M4/4	*M4/4	*
4G	4d	4g	4b-	So
=1	=1	=1	=1	=1
4.F#	4d	8aL	4.dd	giebst
.	.	8gJ	.	.
.	4d	4a	.	.
8F#	.	.	8cc	du
4G;	4d;	4g;	4b-;	nun,
8GL	4B-	4g	4dd	mein
8FnJ	.	.	.	.
=2	=2	=2	=2	=2
4E-	4c	4g	4cc	Je-
4D	4d	4f	4b-	-su,
4.C	4G	8e-L	4b-	gu-
.	.	8dJ	.	.
.	8FL	4e-	4a	-te
8C	8E-J	.	.	.
=3	=3	=3	=3	=3
2BB-;	2F;	2d;	2b-;	Nacht!
4r	4r	4r	4r	.
4B-	4B-	4f	4dd	So
=4	=4	=4	=4	=4
4.A	8cL	4.f	4.ff	stirbst
.	8B-J	.	.	.
.	4c	.	.	.
8A	.	8f	8ee-	du
4B-;	4B-;	4f;	4dd;	denn,
4F#	4A	4d	8ddL	mein
.	.	.	8ccJ	.
=5	=5	=5	=5	=5
8GL	8GL	4d	8b-L	al-
8FJ	8AJ	.	8aJ	.
8E-L	4B-	8gL	4g	-ler-
8DJ	.	8fJ	.	.
4C	8e-L	4g	4.a	-lieb-
.	8dJ	.	.	.
4C	8cL	4e-	.	.
.	8B-J	.	8g	-stes
=6	=6	=6	=6	=6
4D	4A	4d	4f#	Le-
4DD;	4F#;	4A;	4d;	-ben?
4r	4r	4r	4r	.
4D	4d	4f	4a	Ja,
=7	=7	=7	=7	=7
4.E	4c	8gL	4.cc	du
.	.	8fJ	.	.
.	4c	4g	.	.
8E	.	.	8b-	bist
4F	4c	8fL	4a	hin,
.	.	8aJ	.	.
4BB-	4d	8gL	4b-	dein
.	.	8fJ	.	.
=8	=8	=8	=8	=8
4C	4G	4e	4b-	Lei-
4F	8AL	4f	4a	-den
.	8B-J	.	.	.
4.C	4c	4f	4.g	ist
.	4c	8fL	.	.
8C	.	8eJ	8g	voll-
=9	=9	=9	=9	=9
2FF;	2c;	2f;	2a;	-bracht.
4r	4r	4r	4r	.
8FL	4c	4f	4a	Mein
8E-J	.	.	.	.
=10	=10	=10	=10	=10
8DL	4d	4f	4b-	Gott
8CJ	.	.	.	.
8BB-L	4c	4f	4cc	ist
8AAJ	.	.	.	.
4BB-;	4B-;	4f;	4dd;	tod,
8BB-L	4d	4f	8ddL	sein
8AAJ	.	.	16eeL	.
.	.	.	16ffJJ	.
=11	=11	=11	=11	=11
4GG	8gL	8b-L	4.ee	Geist
.	8fJ	8aJ	.	.
4GG#	4e	4bn	.	.
.	.	.	8dd	ist
4AA	4e	4a	4cc#	auf-
4D	4f	4a	4dd	-ge-
=12	=12	=12	=12	=12
2AA	8eL	2a	4.dd	-ge-
.	8dJ	.	.	.
.	4e	.	.	.
.	.	.	8cc#	.
4D;	4f#;	4a;	4dd;	-ben,
8DL	4A	4d	4f#	mein
8CJ	.	.	.	.
=13	=13	=13	=13	=13
8BB-L	4B-	4d	4g	Gott
8AAJ	.	.	.	.
8GGL	4A	4d	4a	ist
8FF#J	.	.	.	.
4GG;	4G;	4d;	4b-;	tod,
8E-L	4B-	8gL	8gL	sein
8DJ	.	8fJ	16aL	.
.	.	.	16b-JJ	.
=14	=14	=14	=14	=14
4C	8cL	8e-L	4.a	Geist
.	8B-J	8dJ	.	.
4C#	4A	4en	.	.
.	.	.	8g	ist
8DL	4A	4d	4f#	auf-
8CnJ	.	.	.	.
8BB-L	4B-	4d	4g	-ge-
8GGJ	.	.	.	.
=15	=15	=15	=15	=15
2D	8AL	2d	4.g	-ge-
.	8GJ	.	.	.
.	4A	.	.	.
.	.	.	8f#	.
2GG;	2Bn;	2d;	2g;	-ben.
==|!	==|!	==|!	==|!	==|!
*-	*-	*-	*-	*-
!!!RWG: Key is interpreted using the Humdrum key tool.
!!!URL-pdf: https://s9.imslp.org/files/imglnks/usimg/6/6b/IMSLP24489-PMLP09471-CCARH_Bach_Chorales.pdf#page=110 Musedata edition
!!!URL-pdf: https://s9.imslp.org/files/imglnks/usimg/7/7a/IMSLP04155-Bach_-_BGA_253-438.pdf#page=87 	Bach-Gesellschaft Ausgabe, Band 39 (pp.175-276) Leipzig: Breitkopf und Härtel, 1892. Plate B.W. XXXIX.
!!!END: 1994/07/29
!!!EMD: Converted from MuseData to Humdrum Dec 19, 2000, by Andreas Kornstaedt using muse2kern.
!!!EED: Craig Stuart Sapp
!!!EEV: 2024/03/31
!!!filter-keyboard: extract -i kern | satb2gs
!!!title: @{OTL} (@{SCT})
